icon-themes/sifr_svg/cmd/lc_arrowshapes.split-arrow.svg

<svg viewBox="0 0 24 24" xmlns="http://www.w3.org/2000/svg"><g fill="#555753"><path d="m3 4v2.9140625l.2382812-.2617187 6.7617188 7.2011722v8.146484h4v-8.126953l6.429688-7.3300782.570312.5625v-3.1054688h-3.115234l.455078.546875-6.330078 6.603516-6.5136722-6.6269535.4804687-.5234375z" opacity=".35"/><path d="m1 2v1 9.085938l2.2617188-2.4882818 4.7382812 5.0488278v9.353516h8v-9.373047l4.533203-5.1699218 2.466797 2.4355468v-9.892578h-9.384766l2.044922 2.453125-3.669922 3.8261719-3.7363278-3.8027344 2.2695318-2.4765625zm2 2h2.9765625l-.4804687.5234375 6.5136722 6.6269535 6.330078-6.603516-.455078-.546875h3.115234v3.1054688l-.570312-.5625-6.429688 7.3300782v8.126953h-4v-8.146484l-6.7617188-7.2011722-.2382812.2617187z"/></g></svg>

<svg viewBox="0 0 24 24" xmlns="http://www.w3.org/2000/svg">
  <path
     style="opacity:0.35;fill:#555753"
     d="M 3,4 V 6.9140625 L 3.2382812,6.6523438 10,13.853516 V 22 h 4 V 13.873047 L 20.429688,6.5429688 21,7.1054688 V 4 H 17.884766 L 18.339844,4.546875 12.009766,11.150391 5.4960938,4.5234375 5.9765625,4 Z"
     />
  <path
     style="fill:#555753"
     d="m 1,2 v 1 9.085938 L 3.2617188,9.5976562 8,14.646484 V 24 h 8 V 14.626953 L 20.533203,9.4570312 23,11.892578 V 2 H 13.615234 L 15.660156,4.453125 11.990234,8.2792969 8.2539062,4.4765625 10.523438,2 Z M 3,4 H 5.9765625 L 5.4960938,4.5234375 12.009766,11.150391 18.339844,4.546875 17.884766,4 H 21 V 7.1054688 L 20.429688,6.5429688 14,13.873047 V 22 H 10 V 13.853516 L 3.2382812,6.6523438 3,6.9140625 Z"
     />
</svg>
